X:1
T:The humble suit of a sinner
T:John Farmer
T:Source : The Whole Book of Psalms---London---Musical Antoquarian Society---1844 First publication : London---Th.Est(e)---1592. Editor : André Vierendeels (21/08/16).
T:Notes : Original clefs : C1, C3, C4 ,F4 Editorial accidentals above the staff
T:The humble suit of a sinner
T:©
T:©
T:©
C:John Farmer
Z:©
%%score [ 1 [ 2 3 ] 4 ]
L:1/8
Q:1/4=116
M:4/4
K:F
V:1 treble nm="Soprano" snm="S"
V:2 treble-8 nm="Tenor 1" snm="T 1"
V:3 treble-8 nm="Tenor 2" snm="T 2"
V:4 bass nm="Bass" snm="B"
V:1
 A8 | F8- | F4 B4 | A4 G4 | A6 G2 | ^F8 || G8 | E4 F4 | G6 F2 | E8 || c8 | B4 A2 G2 | F4 D4 | %13
w: O,|Lord,|_ of|whom I|do de-|pend,|be-|hold my|care- ful|heart,|and|when thy _|will and|
 F2 E2 G4 | ^F8 || A4 c4- | c4 A4 | B4 A2 G2 | ^F8 || A8 | D4 E4 | F4 G4 | A6 G2 | ^F8 || c8 | %25
w: plea- * sure|is,|re- lease|_ me|of my _|smart,|thou|see'st my|sor- rows|what they|are,|my|
 B4 A2 B2 | c6 B2 | A8 || D8 | G4 G4 | F4 F4 | E4 D4 | ^C8 || z4 c4 | =B4 A4 | G4 E4 | %36
w: grief is _|know to|thee,|and|there is|none that|can re-|move,|or|take the|same from|
 !fermata!^F8 |] %37
w: me.|
V:2
 f8 | d8- | d4 d4 | d4 d4 | d4 ^c4 | d8 || =B4 d4- | d2 c2 c4- | c4 =B4 | c8 || c8 | d4 c4 | %12
w: O;|Lord,|_ of|whom I|do de-|pend,|be- hold|_ my care-|* ful|heart,|and|when thy|
 A4 B4 | c4 d4 | d8 || f4 e4- | e2 d2 d4- | d4 ^c4 | d8 || d8 | A4 c4 | A4 d4 | d4 ^c4 | d8 || %24
w: will and|plea- sure|is,|re- lease|_ me of|_ my|smart,|thou|see'st my|sor- rows|what they|are,|
 e4 f4 | d2 e2 f4- | f4 e4 | f8 || B8 | d4 d4 | d4 d4 | c4 A4 | A8 || f4 e4- | e2 d2 d4- | d4 ^c4 | %36
w: my grief|is _ know|_ to|thee,|and|there is|none that|can re-|move,|or take|_ the same|_ from|
 !fermata!d8 |] %37
w: me.|
V:3
 D8 | A8- | A4 G4 | F4 D4 | F4 E4 | D8 || D4 G4- | G4 C4 | E4 D4 | C8 || C4 F4- | F4 E4 | F4 G4 | %13
w: O,|Lord,|_ of|whom I|do de-|pend,|be- hold|_ my|care- ful|heart,|and when|_ thy|will and|
 A4 B4 | A8 || D4 G4- | G4 F4 | E4 E4 | D8 || D8 | D4 C4 | F4 D4 | E4 E4 | D8 || A8 | G4 F4 | %26
w: plea- sure|is,|re- lease|_ me|of my|smart,|thou|see'st my|sor- rows|what they|are,|my|gief is|
 G4 G4 | F8 || F8 | B4 B4 | A4 D4 | G4 F4 | E8 || C8 | D4 F4 | E4 E4 | !fermata!D8 |] %37
w: know to|thee,|and|there is|none that|can re-|move,|or|take the|same from|me.|
V:4
 D,8 | D,8- | D,4 G,,4 | D,4 B,,4 | A,,4 A,,4 | D,8 || G,,8 | C,4 A,,4 | G,,4 G,,4 | C,8 || A,,8 | %11
w: O,|Lord,|_ of|whom I|do de-|pend,|be-|hold my|care- ful|heart,|and|
 B,,4 C,4 | D,4 B,,4 | A,,4 G,,4 | D,8 || D,4 C,4- | C,4 D,4 | G,,4 A,,4 | D,8 || D,4 F,4- | %20
w: when thy|will and|plea- sure|is,|re- lease|_ me|of my|smart,|thou see'st|
 F,4 E,4 | D,4 B,,4 | A,,4 A,,4 | D,8 || A,,8 | B,,4 D,4 | C,4 C,4 | F,,8 || B,,8 | G,,4 G,4 | %30
w: _ my|sor- rows|what they|are,|my|grif is|know to|thee,|and|there is|
 D,4 B,,4 | C,4 D,4 | A,,8 ||"^-natural" A,,8 | G,,4 F,,4 | G,,4 A,,4 | !fermata!D,8 |] %37
w: none that|can re-|move,|or|take the|same from|me.|

